img/numbers/like.svg

<svg width="38" height="38" viewBox="0 0 38 38" fill="none" xmlns="http://www.w3.org/2000/svg">
<path d="M10.637 35.9998H5.45482C4.53854 35.9998 3.6598 35.6416 3.01189 35.004C2.36399 34.3663 2 33.5015 2 32.5998V20.6999C2 19.7981 2.36399 18.9334 3.01189 18.2957C3.6598 17.6581 4.53854 17.2999 5.45482 17.2999H10.637M22.7289 13.8999V7.09997C22.7289 5.74737 22.1829 4.45018 21.2111 3.49375C20.2392 2.53732 18.9211 2 17.5467 2L10.637 17.2999V35.9998H30.1222C30.9554 36.0091 31.7639 35.7217 32.3988 35.1906C33.0337 34.6595 33.4521 33.9205 33.5771 33.1098L35.9609 17.8099C36.036 17.3226 36.0026 16.8251 35.863 16.3517C35.7234 15.8784 35.4808 15.4406 35.1522 15.0687C34.8236 14.6968 34.4167 14.3996 33.9598 14.1978C33.5029 13.996 33.0068 13.8943 32.5061 13.8999H22.7289Z" stroke="#1E489B" stroke-width="2.3" stroke-linecap="round" stroke-linejoin="round"/>
</svg>

<svg width="38" height="38" fill="none" xmlns="http://www.w3.org/2000/svg"><path d="M10.637 36H5.455a3.483 3.483 0 0 1-2.443-.996A3.373 3.373 0 0 1 2 32.6V20.7c0-.902.364-1.767 1.012-2.404a3.483 3.483 0 0 1 2.443-.996h5.182m12.092-3.4V7.1a5.06 5.06 0 0 0-1.518-3.606A5.225 5.225 0 0 0 17.547 2l-6.91 15.3V36h19.485a3.489 3.489 0 0 0 2.277-.81 3.387 3.387 0 0 0 1.178-2.08l2.384-15.3a3.35 3.35 0 0 0-.098-1.458 3.384 3.384 0 0 0-.71-1.283 3.451 3.451 0 0 0-1.193-.871 3.502 3.502 0 0 0-1.454-.298H22.73z" stroke="#1E489B" stroke-width="2.3" stroke-linecap="round" stroke-linejoin="round"/></svg>
